X:157
T:Dunstable Bonnet, The
M:6/8
L:1/8
B:Thompson's Compleat Collection of 200 Favourite Country Dances, vol. 2 (London, 1765)
Z:Transcribed and edited by Flynn Titford-Mock, 2007
Z:abc's:AK/Fiddler's Companion
K:G
GAB cde | def "tr"g3 | gfe dcB | ABc BAG | GAB cde | def "tr"g3 | gfe fad | ed&c d3 :|
|: dfa a2B | cBA B3 | B2e ^d2e | fe^d e3 | g2d {c}BAG | d2A {G}FED | EGc Bdg | BcA G3 :|

